src/assets/outline/GlobalRefresh.svg

<svg width="24" height="24" viewBox="0 0 24 24"  xmlns="http://www.w3.org/2000/svg">
<path d="M12 22.75C6.07 22.75 1.25 17.93 1.25 12C1.25 6.07 6.07 1.25 12 1.25C17.93 1.25 22.75 6.07 22.75 12C22.75 12.41 22.41 12.75 22 12.75C21.59 12.75 21.25 12.41 21.25 12C21.25 6.9 17.1 2.75 12 2.75C6.9 2.75 2.75 6.9 2.75 12C2.75 17.1 6.9 21.25 12 21.25C12.41 21.25 12.75 21.59 12.75 22C12.75 22.41 12.41 22.75 12 22.75Z" />
<path d="M9.00022 21.75H8.00022C7.59022 21.75 7.25022 21.41 7.25022 21C7.25022 20.59 7.57023 20.26 7.98023 20.25C6.41023 14.89 6.41023 9.11 7.98023 3.75C7.58023 3.74 7.25022 3.41 7.25022 3C7.25022 2.59 7.59022 2.25 8.00022 2.25H9.00022C9.24022 2.25 9.47021 2.37 9.61021 2.56C9.75021 2.76 9.79021 3.00999 9.71021 3.23999C7.83021 8.88999 7.83021 15.12 9.71021 20.77C9.79021 21 9.75021 21.25 9.61021 21.45C9.47021 21.65 9.24022 21.75 9.00022 21.75Z" />
<path d="M16.4599 12.75C16.0499 12.75 15.7099 12.41 15.7099 12C15.7099 9.01996 15.2299 6.06995 14.2899 3.23995C14.1599 2.84995 14.3699 2.41994 14.7599 2.28994C15.1499 2.15994 15.5799 2.36997 15.7099 2.75997C16.6999 5.73997 17.2099 8.84996 17.2099 12C17.2099 12.41 16.8699 12.75 16.4599 12.75Z" />
<path d="M12 17.2098C9.2 17.2098 6.43 16.8098 3.75 16.0198C3.74 16.4198 3.41 16.7498 3 16.7498C2.59 16.7498 2.25 16.4098 2.25 15.9998V14.9998C2.25 14.7598 2.37 14.5298 2.56 14.3898C2.75 14.2498 3.00999 14.2098 3.23999 14.2898C6.06999 15.2298 9.02 15.7098 12 15.7098C12.41 15.7098 12.75 16.0498 12.75 16.4598C12.75 16.8698 12.41 17.2098 12 17.2098Z" />
<path d="M21.0002 9.74989C20.9202 9.74989 20.8402 9.73991 20.7602 9.70991C15.1102 7.82991 8.88019 7.82991 3.23019 9.70991C2.84019 9.83991 2.41018 9.62988 2.28018 9.23988C2.15018 8.84988 2.36018 8.41986 2.75018 8.28986C8.71018 6.29986 15.2702 6.29986 21.2202 8.28986C21.6102 8.41986 21.8202 8.84988 21.6902 9.23988C21.6102 9.54988 21.3102 9.74989 21.0002 9.74989Z" />
<path d="M18.26 22.7498C15.78 22.7498 13.77 20.7298 13.77 18.2598C13.77 15.7898 15.79 13.7598 18.26 13.7598C18.76 13.7598 19.26 13.8297 19.73 13.9797C20.13 14.0997 20.35 14.5197 20.23 14.9197C20.11 15.3197 19.69 15.5397 19.29 15.4197C18.96 15.3197 18.61 15.2698 18.26 15.2698C16.61 15.2698 15.27 16.6098 15.27 18.2698C15.27 19.9298 16.61 21.2598 18.26 21.2598C19.91 21.2598 21.25 19.9198 21.25 18.2698C21.25 17.6698 21.08 17.0997 20.75 16.6097C20.52 16.2697 20.61 15.7998 20.96 15.5698C21.3 15.3398 21.77 15.4298 22 15.7798C22.5 16.5198 22.76 17.3898 22.76 18.2798C22.75 20.7298 20.73 22.7498 18.26 22.7498Z" />
<path d="M20.0403 15.5498C19.8303 15.5498 19.6202 15.4598 19.4702 15.2898L18.2202 13.8598C17.9502 13.5498 17.9803 13.0698 18.2903 12.7998C18.6003 12.5298 19.0702 12.5598 19.3502 12.8698L20.6002 14.2998C20.8702 14.6098 20.8402 15.0898 20.5302 15.3598C20.3902 15.4898 20.2203 15.5498 20.0403 15.5498Z" />
<path d="M18.58 16.6102C18.35 16.6102 18.12 16.5002 17.97 16.3002C17.73 15.9702 17.8 15.5002 18.13 15.2502L19.59 14.1902C19.92 13.9402 20.39 14.0202 20.64 14.3502C20.88 14.6802 20.81 15.1502 20.48 15.4002L19.02 16.4602C18.89 16.5602 18.74 16.6102 18.58 16.6102Z" />
</svg>

<?xml version="1.0" encoding="UTF-8"?>
<svg width="24" height="24" viewBox="0 0 24 24" xmlns="http://www.w3.org/2000/svg">
 <path d="m12 22.75c-5.93 0-10.75-4.82-10.75-10.75s4.82-10.75 10.75-10.75 10.75 4.82 10.75 10.75c0 0.41-0.34 0.75-0.75 0.75s-0.75-0.34-0.75-0.75c0-5.1-4.15-9.25-9.25-9.25s-9.25 4.15-9.25 9.25 4.15 9.25 9.25 9.25c0.41 0 0.75 0.34 0.75 0.75s-0.34 0.75-0.75 0.75z"/>
 <path d="m9.0002 21.75h-1c-0.41 0-0.75-0.34-0.75-0.75s0.32001-0.74 0.73001-0.75c-1.57-5.36-1.57-11.14 0-16.5-0.4-0.01-0.73001-0.34-0.73001-0.75s0.34-0.75 0.75-0.75h1c0.24 0 0.46999 0.12 0.60999 0.31 0.14 0.2 0.18 0.44999 0.1 0.67999-1.88 5.65-1.88 11.88 0 17.53 0.08 0.23 0.04 0.48-0.1 0.68s-0.36999 0.3-0.60999 0.3z"/>
 <path d="m16.46 12.75c-0.41 0-0.75-0.34-0.75-0.75 0-2.98-0.48-5.93-1.42-8.76-0.13-0.39 0.08-0.82001 0.47-0.95001s0.82 0.08003 0.95 0.47003c0.99 2.98 1.5 6.09 1.5 9.24 0 0.41-0.34 0.75-0.75 0.75z"/>
 <path d="m12 17.21c-2.8 0-5.57-0.4-8.25-1.19-0.01 0.4-0.34 0.73-0.75 0.73s-0.75-0.34-0.75-0.75v-1c0-0.24 0.12-0.47 0.31-0.61s0.44999-0.18 0.67999-0.1c2.83 0.94 5.78 1.42 8.76 1.42 0.41 0 0.75 0.34 0.75 0.75s-0.34 0.75-0.75 0.75z"/>
 <path d="m21 9.7499c-0.08 0-0.16-0.00998-0.24-0.03998-5.65-1.88-11.88-1.88-17.53 0-0.39 0.13-0.82001-0.08003-0.95001-0.47003s0.08-0.82002 0.47-0.95002c5.96-1.99 12.52-1.99 18.47 0 0.39 0.13 0.6 0.56002 0.47 0.95002-0.08 0.31-0.38 0.51001-0.69 0.51001z"/>
 <path d="m18.26 22.75c-2.48 0-4.49-2.02-4.49-4.49s2.02-4.5 4.49-4.5c0.5 0 1 0.0699 1.47 0.2199 0.4 0.12 0.62 0.54 0.5 0.94s-0.54 0.62-0.94 0.5c-0.33-0.1-0.68-0.1499-1.03-0.1499-1.65 0-2.99 1.34-2.99 3s1.34 2.99 2.99 2.99 2.99-1.34 2.99-2.99c0-0.6-0.17-1.1701-0.5-1.6601-0.23-0.34-0.14-0.8099 0.21-1.0399 0.34-0.23 0.81-0.14 1.04 0.21 0.5 0.74 0.76 1.61 0.76 2.5-0.01 2.45-2.03 4.47-4.5 4.47z"/>
 <path d="m20.04 15.55c-0.21 0-0.4201-0.09-0.5701-0.26l-1.25-1.43c-0.27-0.31-0.2399-0.79 0.0701-1.06s0.7799-0.24 1.0599 0.07l1.25 1.43c0.27 0.31 0.24 0.79-0.07 1.06-0.14 0.13-0.3099 0.19-0.4899 0.19z"/>
 <path d="m18.58 16.61c-0.23 0-0.46-0.11-0.61-0.31-0.24-0.33-0.17-0.8 0.16-1.05l1.46-1.06c0.33-0.25 0.8-0.17 1.05 0.16 0.24 0.33 0.17 0.8-0.16 1.05l-1.46 1.06c-0.13 0.1-0.28 0.15-0.44 0.15z"/>
</svg>
